build/img/sprite/logo.svg

<svg width="160" height="45" viewBox="0 0 160 45" fill="none" xmlns="http://www.w3.org/2000/svg">
<path fill-rule="evenodd" clip-rule="evenodd" d="M19.0614 35L49.4692 37.3436V45H0V36.5625L19.0614 35ZM20.6487 43.4103H47.882V38.8156L20.6487 36.7167V43.4103Z" fill="#003865"/>
<path fill-rule="evenodd" clip-rule="evenodd" d="M104.449 26.5374C105.349 26.5374 106.169 26.6805 106.91 26.9666C107.661 27.2528 108.312 27.6609 108.862 28.1907C109.412 28.71 109.841 29.3193 110.147 30.0187C110.465 30.7182 110.624 31.4866 110.624 32.3238C110.624 33.1611 110.465 33.9347 110.147 34.6447C109.841 35.3442 109.412 35.9537 108.862 36.473C108.312 36.9922 107.661 37.3949 106.91 37.681C106.169 37.9672 105.349 38.1103 104.449 38.1103C103.56 38.1103 102.74 37.9672 101.989 37.681C101.238 37.3949 100.582 36.9922 100.021 36.473C99.4707 35.9431 99.042 35.3284 98.7352 34.6289C98.4283 33.9295 98.2748 33.1611 98.2748 32.3238C98.2748 31.4866 98.4283 30.7182 98.7352 30.0187C99.042 29.3193 99.4707 28.71 100.021 28.1907C100.582 27.6608 101.238 27.2528 101.989 26.9666C102.74 26.6805 103.56 26.5374 104.449 26.5374ZM104.449 29.1444C104.026 29.1444 103.629 29.2186 103.259 29.367C102.899 29.5153 102.582 29.7326 102.306 30.0187C102.042 30.2943 101.83 30.6282 101.671 31.0203C101.523 31.4018 101.449 31.8363 101.449 32.3238C101.449 32.8007 101.523 33.2352 101.671 33.6274C101.83 34.0195 102.042 34.3586 102.306 34.6447C102.582 34.9203 102.899 35.1323 103.259 35.2807C103.629 35.4291 104.026 35.5032 104.449 35.5032C104.872 35.5032 105.264 35.4291 105.624 35.2807C105.994 35.1323 106.312 34.9203 106.576 34.6447C106.851 34.3586 107.063 34.0195 107.211 33.6274C107.37 33.2352 107.449 32.8007 107.449 32.3238C107.449 31.8363 107.37 31.4018 107.211 31.0203C107.063 30.6282 106.851 30.2943 106.576 30.0187C106.312 29.7326 105.994 29.5153 105.624 29.367C105.264 29.2186 104.872 29.1444 104.449 29.1444Z" fill="#003865"/>
<path fill-rule="evenodd" clip-rule="evenodd" d="M75.5529 26.7599V29.192H69.3628V30.9885H72.2356L72.4859 30.9918C73.7178 31.0254 74.6661 31.3105 75.3307 31.847C76.0503 32.4192 76.4101 33.2458 76.4101 34.3267C76.4101 35.4395 76.0081 36.314 75.2039 36.9498C74.3997 37.5751 73.2727 37.8878 71.823 37.8878H66.2676V26.7599H75.5529ZM69.3628 35.6305H71.6166C72.135 35.6305 72.5319 35.5244 72.807 35.3125C73.0927 35.1006 73.2356 34.7985 73.2356 34.4064C73.2356 33.6467 72.7292 33.255 71.7163 33.2312L71.6166 33.2299H69.3628V35.6305Z" fill="#003865"/>
<path d="M86.7466 29.192H81.1434V31.0679H86.0798V33.4206H81.1434V35.4556H86.9527V37.8878H78.0325V26.7599H86.7466V29.192Z" fill="#003865"/>
<path d="M97.6953 26.7599V29.2557H94.2987V37.8878H91.2035V29.2557H87.7911V26.7599H97.6953Z" fill="#003865"/>
<path d="M115.447 30.9409H119.732V26.7599H122.875V37.8878H119.732V33.5479H115.447V37.8878H112.304V26.7599H115.447V30.9409Z" fill="#003865"/>
<path d="M128.405 26.7599V30.9409H132.691V26.7599H135.833V37.8878H132.691V33.5479H128.405V37.8878H125.262V26.7599H128.405Z" fill="#003865"/>
<path fill-rule="evenodd" clip-rule="evenodd" d="M150.03 37.8878H146.76L145.894 35.7257H141.182L140.316 37.8878H137.11L142.014 26.7599H145.109L150.03 37.8878ZM142.112 33.4048H144.964L143.538 29.8469L142.112 33.4048Z" fill="#003865"/>
<path fill-rule="evenodd" clip-rule="evenodd" d="M160 37.8878H156.905V35.09H155.198L153.365 37.8878H150.064L152.321 34.6194C152.304 34.6119 152.287 34.6048 152.27 34.5971C151.551 34.2686 150.995 33.797 150.603 33.1823C150.222 32.5676 150.032 31.8363 150.032 30.9885C150.032 30.1089 150.233 29.3565 150.635 28.7312C151.048 28.0954 151.625 27.6077 152.365 27.2686C153.117 26.9294 153.995 26.7599 155 26.7599H160V37.8878ZM155.064 29.2399C154.45 29.2399 153.984 29.383 153.667 29.6692C153.36 29.9447 153.207 30.3686 153.207 30.9409C153.207 31.5025 153.36 31.9316 153.667 32.2284C153.984 32.5145 154.439 32.6576 155.032 32.6576H156.905V29.2399H155.064Z" fill="#003865"/>
<path fill-rule="evenodd" clip-rule="evenodd" d="M29.0461 18.1819L49.4692 25.682V33.1818L29.0461 28.8963V28.9033L0 32.2729V24.921L29.0461 18.1819ZM30.6333 27.6049L47.882 31.2244V26.792L30.6333 20.4578V27.6049Z" fill="#003865"/>
<path fill-rule="evenodd" clip-rule="evenodd" d="M49.4692 14.587V22.2728L35.4 11.8614V11.8816L0 20.4547V13.2353L35.4 0L49.4692 14.587ZM36.9872 11.0593L47.882 19.1214V15.2294L36.9872 3.93362V11.0593Z" fill="#003865"/>
<path d="M106.486 7.41858V16.0507H110.756V7.41858H113.851V16.0507H115.375V20.8197H112.502V18.5465H103.391V7.41858H106.486Z" fill="#003865"/>
<path d="M68.4899 7.41858L71.0743 12.7846L73.7595 7.41858H76.8229L72.2198 16.0188C71.7648 16.8667 71.2199 17.5239 70.585 17.9902C69.9607 18.4565 69.2727 18.7214 68.5214 18.785C67.7701 18.8486 66.9818 18.7107 66.1565 18.3716L66.9026 16.0507C67.5269 16.2308 68.0348 16.2891 68.4263 16.2256C68.8266 16.1517 69.1794 15.8886 69.4853 15.4367L65.1725 7.41858H68.4899Z" fill="#003865"/>
<path d="M87.9941 18.5465H84.8992V9.91439H81.7017L81.6451 11.7266C81.6134 12.8076 81.5393 13.7826 81.4229 14.6517C81.3066 15.51 81.1215 16.2466 80.8675 16.8613C80.6136 17.4654 80.2589 17.9318 79.8039 18.2603C79.3595 18.5782 78.7882 18.7371 78.0898 18.7372C77.8782 18.7372 77.6507 18.7213 77.4073 18.6895C77.1745 18.6577 76.9257 18.61 76.6612 18.5465L76.8358 15.9712C76.984 16.003 77.1269 16.0188 77.2644 16.0188C77.6982 16.0188 78.0262 15.8493 78.2485 15.5101C78.4707 15.1604 78.6242 14.6728 78.7088 14.0475C78.804 13.4223 78.8623 12.6911 78.8835 11.8539L79.0421 7.41858H87.9941V18.5465Z" fill="#003865"/>
<path d="M93.466 13.9523L98.0531 7.41858H101.005V18.5465H97.9103V12.0288L93.3389 18.5465H90.3708V7.41858H93.466V13.9523Z" fill="#003865"/>
<path fill-rule="evenodd" clip-rule="evenodd" d="M128.779 18.5465H125.509L124.643 16.3844H119.931L119.065 18.5465H115.859L120.763 7.41858H123.858L128.779 18.5465ZM120.861 14.0635H123.713L122.287 10.5056L120.861 14.0635Z" fill="#003865"/>
</svg>

<svg width="160" height="45" fill="none" xmlns="http://www.w3.org/2000/svg"><path fill-rule="evenodd" clip-rule="evenodd" d="m19.061 35 30.408 2.344V45H0v-8.438L19.061 35Zm1.588 8.41h27.233v-4.594l-27.233-2.1v6.694ZM104.449 26.537c.9 0 1.72.143 2.461.43a5.708 5.708 0 0 1 1.952 1.224c.55.519.979 1.128 1.285 1.828.318.7.477 1.468.477 2.305 0 .837-.159 1.61-.477 2.32a5.546 5.546 0 0 1-1.285 1.829c-.55.52-1.201.922-1.952 1.208-.741.286-1.561.43-2.461.43a6.853 6.853 0 0 1-2.46-.43 6.018 6.018 0 0 1-1.968-1.208 5.733 5.733 0 0 1-1.286-1.844 5.674 5.674 0 0 1-.46-2.305c0-.837.153-1.606.46-2.305.307-.7.736-1.309 1.286-1.828a5.884 5.884 0 0 1 1.968-1.224 6.855 6.855 0 0 1 2.46-.43Zm0 2.607c-.423 0-.82.075-1.19.223-.36.148-.677.366-.953.652a3.13 3.13 0 0 0-.635 1.001 3.584 3.584 0 0 0-.222 1.304c0 .477.074.911.222 1.303.159.392.371.732.635 1.018a2.9 2.9 0 0 0 .953.636c.37.148.767.222 1.19.222.423 0 .815-.074 1.175-.222.37-.149.688-.36.952-.636.275-.286.487-.626.635-1.018a3.44 3.44 0 0 0 .238-1.303c0-.488-.079-.922-.238-1.304a2.794 2.794 0 0 0-.635-1.001 2.588 2.588 0 0 0-.952-.652 3.054 3.054 0 0 0-1.175-.223ZM75.553 26.76v2.432h-6.19v1.796h2.873l.25.004c1.232.033 2.18.319 2.845.855.72.572 1.08 1.399 1.08 2.48 0 1.113-.403 1.987-1.207 2.623-.804.625-1.931.938-3.381.938h-5.555V26.76h9.285Zm-6.19 8.87h2.254c.518 0 .915-.106 1.19-.318.286-.211.429-.514.429-.906 0-.76-.507-1.151-1.52-1.175l-.1-.001h-2.253v2.4Z" fill="#003865"/><path d="M86.747 29.192h-5.604v1.876h4.937v2.353h-4.937v2.035h5.81v2.432h-8.92V26.76h8.714v2.432ZM97.695 26.76v2.496H94.3v8.632h-3.096v-8.632h-3.412V26.76h9.904ZM115.447 30.94h4.285v-4.18h3.143v11.128h-3.143v-4.34h-4.285v4.34h-3.143V26.76h3.143v4.18ZM128.405 26.76v4.18h4.286v-4.18h3.142v11.128h-3.142v-4.34h-4.286v4.34h-3.143V26.76h3.143Z" fill="#003865"/><path fill-rule="evenodd" clip-rule="evenodd" d="M150.03 37.888h-3.27l-.866-2.162h-4.712l-.866 2.162h-3.206l4.904-11.128h3.095l4.921 11.128Zm-7.918-4.483h2.852l-1.426-3.558-1.426 3.558ZM160 37.888h-3.095V35.09h-1.707l-1.833 2.798h-3.301l2.257-3.269-.051-.022c-.719-.328-1.275-.8-1.667-1.415-.381-.614-.571-1.346-.571-2.194 0-.88.201-1.631.603-2.257.413-.636.99-1.123 1.73-1.462.752-.34 1.63-.51 2.635-.51h5v11.129Zm-4.936-8.648c-.614 0-1.08.143-1.397.43-.307.275-.46.699-.46 1.27 0 .563.153.992.46 1.288.317.286.772.43 1.365.43h1.873V29.24h-1.841ZM29.046 18.182l20.423 7.5v7.5l-20.423-4.286v.007L0 32.273V24.92l29.046-6.74Zm1.587 9.423 17.249 3.62v-4.433l-17.249-6.334v7.147Z" fill="#003865"/><path fill-rule="evenodd" clip-rule="evenodd" d="M49.47 14.587v7.686L35.4 11.86v.02L0 20.456v-7.22L35.4 0l14.07 14.587Zm-12.483-3.528 10.895 8.062V15.23L36.987 3.934v7.125Z" fill="#003865"/><path d="M106.486 7.419v8.632h4.27V7.419h3.095v8.632h1.524v4.769h-2.873v-2.273h-9.111V7.419h3.095ZM68.49 7.419l2.584 5.366 2.686-5.366h3.063l-4.603 8.6c-.455.848-1 1.505-1.635 1.971a3.947 3.947 0 0 1-2.064.795c-.75.064-1.54-.074-2.365-.413l.747-2.321c.624.18 1.132.238 1.523.175.4-.074.753-.337 1.06-.79L65.171 7.42h3.318ZM87.994 18.547H84.9V9.914h-3.197l-.057 1.813a28.481 28.481 0 0 1-.222 2.925c-.116.858-.302 1.595-.555 2.21-.254.603-.61 1.07-1.064 1.398-.445.318-1.016.477-1.714.477-.212 0-.44-.016-.683-.047a7.639 7.639 0 0 1-.746-.143l.175-2.576c.148.032.29.048.428.048.434 0 .762-.17.985-.509.222-.35.375-.837.46-1.463.095-.625.153-1.356.174-2.193l.16-4.435h8.951v11.128ZM93.466 13.952l4.587-6.533h2.952v11.128H97.91v-6.518l-4.571 6.518H90.37V7.419h3.095v6.533Z" fill="#003865"/><path fill-rule="evenodd" clip-rule="evenodd" d="M128.779 18.547h-3.27l-.866-2.163h-4.712l-.866 2.163h-3.206l4.904-11.128h3.095l4.921 11.128Zm-7.918-4.484h2.852l-1.426-3.557-1.426 3.557Z" fill="#003865"/></svg>
